!!!COM: Bach, Johann Sebastian
!!!CDT: 1685/3//-1750/7/28/
!!!OTL@@DE: Ich dank' dir, lieber Herre
!!!OTL@EN:  I thank Thee, dear Lord
!!!AGN: 4-Part Chorale
!!!SCT: BH 002
!!!SCT: BWV 347
**harm	**root	**kern	**kern	**kern	**kern
*	*Iorgan	*Iorgan	*Iorgan	*Iorgan	*Iorgan
!	!	!bass	!tenor	!alto	!sprno
*	*	*clefF4	*clefF4	*clefG2	*clefG2
*k[f#c#g#d#]	*k[f#c#g#d#]	*k[f#c#g#d#]	*k[f#c#g#d#]	*k[f#c#g#d#]	*k[f#c#g#d#]
*E:	*E:	*E:	*E:	*E:	*E:
*met(c)	*met(c)	*met(c)	*met(c)	*met(c)	*met(c)
*M4/4	*M4/4	*M4/4	*M4/4	*M4/4	*M4/4
*MM60	*MM60	*MM60	*MM60	*MM60	*MM60
*>[A,A,B]	*>[A,A,B]	*>[A,A,B]	*>[A,A,B]	*>[A,A,B]	*>[A,A,B]
*>A	*>A	*>A	*>A	*>A	*>A
I	4AA	8E	4G#	4B	4e
.	.	8D#	.	.	.
=1	=1	=1	=1	=1	=1
vi	4FF#	4C#	4G#	4c#	4e
Ib	4AA	4GG#	8G#	4B	4e
.	.	.	8F#	.	.
IV	4DD	4AA	8E	4c#	4e
.	.	.	8D#	.	.
Vb/V	4BB	4AA#	4C#	4c#	4f#
=2	=2	=2	=2	=2	=2
v	4EE	4BB	4.F#	4B	4d
V7/V	4BB	4FF#	.	4A#	4c#
.	.	.	8E	.	.
V;	4EE;	4BBB;	4D#y;	4F#;	4B;
V	4EE	4BB	4B	4d#y	4f#
=3	=3	=3	=3	=3	=3
I	4AA	4E	4B	4e	4g#
V/V	4BB	4F#	4A#	8d#	4f#
.	.	.	.	8c#	.
Ib	4AA	4G#	2G#	[2B	4e
V7c/VI	8CC#	8F#	.	.	8d#
vi7b	8FF#	8E	.	.	8c#
=4	=4	=4	=4	=4	=4
V	4EE	4F#	4.F#	4B]	4d#
V7/V	4BB	4FF#	.	4A#	4c#
.	.	.	8E	.	.
V;	4EE;	4BB;	4D#;	4F#;	4B;
=:|!	=:|!	=:|!	=:|!	=:|!	=:|!
*>B	*>B	*>B	*>B	*>B	*>B
iii	4CC#	4GG#	4D#	8g#	4b
.	.	.	.	8f#	.
=5	=5	=5	=5	=5	=5
IVb	4DD	8C#	8E	4e	4a
.	.	8D#	8F#	.	.
I	4AA	4E	8G#	4e	4g#
.	.	.	8A	.	.
V	4EE	4BB	4B	4d#	4f#
Ib	8AA	8GG#	4B	8e	4e
V7/IV	8AA	8EE	.	8d	.
=6	=6	=6	=6	=6	=6
IV	4DD	4AA	4A	8c#	8e
.	.	.	.	8d#y	8f#
Ib	4AA	8GG#	4B	4e	4g#
.	.	8AA	.	.	.
V;	4EE;	4BB;	4B;	4d#;	4f#;
viio/II	4AA#	4GG#	4B	4e#	4g#
!!linebreak: 2
=7	=7	=7	=7	=7	=7
ii	8BB	4FF#	8c#	8f#	4a
ii7	8BB	.	4F#	8e	.
viiD7b/II	4AA#	4GG#	.	4d	4g#
.	.	.	8E#	.	.
iib	8BB	8AA	4F#	8c#	4f#
v	8EE	8D	.	8B	.
V/II	4FF#	4C#	4G#	4c#	4e#
=8	=8	=8	=8	=8	=8
ii;	2.BB;	2.FF#;	2.A;	2.c#;	2.f#;
iii	4CC#	4GG#	4D#	8B	4B
.	.	.	.	8A	.
=9	=9	=9	=9	=9	=9
vi	4FF#	4C#	4E	4G#	4e
V7	8EE	8BB	8D#	4A	4f#
iib	8BB	8AA	8C#	.	.
iii	4CC#	4GG#	8BB	4B	4g#
.	.	.	8B	.	.
ii	8BB	4FF#	4A	8c#	4a
viiob	8GG#	.	.	8d#	.
=10	=10	=10	=10	=10	=10
I	4AA	8EE	8G#	2e	4b
.	.	8FF#	8A	.	.
I9b	8AA	8GG#	8B	.	8a
IV7	8DD	8AA	8c#	.	8g#
V;	4EE;	4BB;	4d#;	4B;	4f#;
ii	4BB	4FF#	4c#	4f#	4a
=11	=11	=11	=11	=11	=11
vi	8FF#	8C#	8c#	8e	4g#
iiic	8CC#	8D#	8B	8d#	.
ii7d	4BB	4E	8A	4c#	4f#
.	.	.	8G#	.	.
Vb	4EE	8D#	4F#	4B	4.b
.	.	8BB	.	.	.
vi7b	8FF#	[4E	8G#	8c#	.
viioc	8GG#	.	8A	8d#	8a
=12	=12	=12	=12	=12	=12
I	4AA	8E]	4.B	2e	8g#
.	.	8D#	.	.	8f#
ii7c	4BB	4C#	.	.	8e
.	.	.	8A	.	8f#
Ic	8AA	8BB	8G#	4e	4g#
IV7	8DD	8AA	8c#	.	.
V	4EE	4BB	8F#	4d#	4f#
.	.	.	16B	.	.
.	.	.	16A	.	.
=13	=13	=13	=13	=13	=13
I;	2.AA;	2.EE;	2.G#;	2.B;	2.e;
==	==	==	==	==	==
*-	*-	*-	*-	*-	*-
!!chor2scor: -l 2 -s 0.6 -o %b.pmx
!!!YEC: Copyright 2001 by Craig Stuart Sapp
!!!license: GNU General Public License (http://www.gnu.org/copyleft/gpl.html)
!!!SMA: 371 Bach Chorales, edited by Ludwig Erk, C.F. Peters
!!!PDT: 1850, 1865
!!!ONB: Harmony and Root analysis done manually by Craig Sapp (not proofed yet)
